X:1
T:Scottish Finlandaise
T:Trad.
L:1/8
Q:1/4=200
M:4/4
K:G
V:1 treble nm="Piano"
V:1
|:"Em" E2 GB EGBE |"Am" A^GAB c2 c2 |"B7" B^ABe f2 g2 |"Em" BcBA"B7" G2 F2 |"Em" E2 GB EGBE | %5
"Am" A^GAB cBAc |"G" B^ABe"B7" fagf |"Em" e2 BG E4 ::"Em" gagf efed |"Am" cdcB A2 A2 | %10
"D" fgfe dedc |"G" B2 BA"B7" G2 F2 |"Em" E2 EF GFEG |"Am" A^GAB cBAc |"B7" B^ABe fagf | %15
"Em" e2 BG E4 :| %16

